X:128
T:Cupid's Frolic
M:3/2
L:1/8
B:Thompson's Compleat Collection of 200 Favourite Country Dances, vol. 3 (London, 1773)
Z:Transcribed and edited by Flynn Titford-Mock, 2007
Z:abc's:AK/Fiddler's Companion
K:E
(ge)(bf) (gf)(ed) e4 | (ga)(bf) (af)(ed) eg B2 | (ge)(bf) (gf)(ed) e4 | (Be)(dc) (BA)(GF) E4 :|
|: (GE)(BG) (e=d)(cB) c2A2 | (cF) (fg) (ag)(fe) e2d2 | (ba)(gf) (ag)(fe) (gf)(ed) | (Be)(dc) (BA)(GF) E4 :|

